X: 17
T:Staines Morris, Longborough
M:4/4
L:1/8
A:Longborough
P:A(AB2)5A
K:Em
P:A
|:B2e2 ^c2^d2|e2dc B3c|dedc B2AG|^FEFG E4:|
P:B
|:G2GG  D2D2 |EFGA B3c|dedc B2AG|^FEFG E4:|
